X:465
T:New York Girls
M:4/4
L:1/8
K:G
d2 | B2 d2 d2 B2 | c2 e4 e2 | f2 f2 e2 f2 | d6 d2 | 
g2 g2 g2 d2 | f2 e2 e4 | d2 d2 c2 A2 | G4 B2 c2 | 
d6 B2 | c2 e6 | d4 c4 | B2 G6 | 
g6 d2 | f2 e2 e4 | d2 d2 c2 A2 | A2 G4 || 

